X: 13
T: No_10_Song_After_Emerging_from_Ashes_Hill.krn
N: Derived from No_10_Song_After_Emerging_from_Ashes_Hill.krn
%%abc-version 2.0
%%abcx-abcm2ps-target-version 5.9.1 (29 Sep 2008)
%%abc-creator hum2abc beta
%%abcx-conversion-date 2019/03/15 08:37:56
%%humdrum-veritas 1467003750
%%humdrum-veritas-data 3893036079
%%linebreak <none>
%%barnumbers 0
L: 1/8
M: 3/4
K: Gb clef=bass
[K:clef=bass][M:3/4]A,4A,2 | 
{/A,}A,4A,2 | 
A,4(G,E,) | 
G,2E,2z2 | 
A,2(G,2E,2) | 
G,G,- G,E, A,G, | 
A,E,-E,2D,C, | 
D,2C,2z2 | 
E,2D,C,-C,2 ||  
[M:2/4]C,3G,, ||  
[M:3/4]D,2D,3C, ||  
[M:2/4]D,D,D,2- | 
D,2z2 ||  
[M:3/4]G,2E,D,- D,3/D,/ ||  
[M:2/4]D,4 ||  
[M:3/4]G,/G,3/ A,/G,3/- G,C, | 
D,2C,4 | 
D,3C, E,C, | 
D,C,-C,2D,2 | 
D,3D,C,2 | 
D,D, D,/D,3/-D,2 | 
D,6 |]  



